X: 2012
T: Tommy's Tarbukas (ou Sparky)
C:Alasdair Fraser
B: steve tunes
M:4/4
L:1/8
R: reel
Q: 1/4=100
K:Gmin
V:1 
(3ABc|:"Gm"d2 cd BGGB|"F"AFcF dFcF|"Gm"d2 cd BGGB|"F"AFcA "Gm"BGBc|
|"Gm"d2 cd BGGB|"F"AFcF dFcF|"Gm"d2 Bd "F"AFFA|1 "Dm"Ggdc "Gm"BGBc:|2 "Dm"Ggdc "Gm"BGGF||
|:"Gm"DGBG "Eb"EGcB|"F"Acfe "Bb"dbfd|"Gm"DGBG "Eb"EGcB|"F"AfcA "Gm"BGGF|
|"Gm"DGBG "Eb"EGcB|"F"Acfe "Bb"dbfd|"Gm"fdBe "F"cAFE|1 "D"DG^FA "Gm"BGG=F:|2 "D"DG^FA "Gm"BGBc||
% abcbook-tune_id 629fde3bcd2eb9f3d5739a9a


% abcbook-boost 0
% abcbook-tablature 
% abcbook-transpose 
% abcbook-lastupdated 1654681236417
% abcbook-soundfonts 
% abcbook-repeats 3
% Rhythm Reel
% Titles One title
% Transcriptions Only 1 transcription
% Mode minor
% Key G
% Key E
% Time_signature 4/4
% Has_accompaniment_chords No chords

